assets/gcpautoml/original.svg

<svg height="24" width="24" xmlns="http://www.w3.org/2000/svg"><path d="m4.5 16.72 5-8.58h1.67l1.66-2.57-1.68-2.57h-4.15l-5 8.58z" fill="#4285f4"/><path d="m14.5 5.57-1.67 2.57h3.34l1.66-2.57-1.66-2.57h-3.34z" fill="#669df6" fill-opacity=".8"/><path d="m19.5 7.28-5 8.58h-1.67l-1.66 2.57 1.68 2.57h4.15l5-8.58z" fill="#aecbfa" fill-opacity=".6"/><path d="m11.17 21-1.67-2.57 1.67-2.57h-3.34l-1.66 2.57 1.66 2.57z" fill="#669df6" fill-opacity=".8"/></svg>

<svg xmlns="http://www.w3.org/2000/svg" width="24" height="24"><path fill="#4285f4" d="m4.5 16.72 5-8.58h1.67l1.66-2.57L11.15 3H7l-5 8.58z"/><path fill="#669df6" fill-opacity=".8" d="m14.5 5.57-1.67 2.57h3.34l1.66-2.57L16.17 3h-3.34z"/><path fill="#aecbfa" fill-opacity=".6" d="m19.5 7.28-5 8.58h-1.67l-1.66 2.57L12.85 21H17l5-8.58z"/><path fill="#669df6" fill-opacity=".8" d="M11.17 21 9.5 18.43l1.67-2.57H7.83l-1.66 2.57L7.83 21z"/></svg>
